X: 27062
T: Miss Janet Laing
R: strathspey
M: 4/4
K: Dmajor
A>G|F2 (3FED A2 A<d|B>AB<d e2 e>f|g>be<g f<ad>f|g>fe<d e2 A>G|
F2 (3FED A2 A<d|B>cd<e f2 f>e|d>Bd>B A<d F2|B<ec<A d2:|
c2|B2B>c B<c F2|B>cd<e f2 f>e|de/f/ Bc/d/ cd/e/ FB/c/|d>Bc<A B2 (3ABc|
d2 a>d c2 a>c|B>g (3gdB f2 f>e|d>Bd>B A<d F2|B<ec<A d2:|

